X:3
T:Lady Salisburyâ€™s Whim. JBs.003
R:Jig
S:Jas.Blackshaw MS, 1837, N.Shropshire
Z:T. Weatherall 2006
M:6/8
L:1/8
Q:3/8=120
K:G
d|gfg dBd|gfg dBd|gfe dcB|ABG FED|!
gfg dBd|gfg dBd|edc BAG|d3â€³dotted in MS.â€d2:|!
|:d|def gfe|fga bag|aba bag|(g3f2)d|!
gfe dcB|edc BAG|efg a2b|g3â€³dotted in MS.â€G2:|

